assets/images/nextjs.svg

<svg width="24" height="24" viewBox="0 0 24 24" fill="none" xmlns="http://www.w3.org/2000/svg">
<g clip-path="url(#clip0_3300_11995)">
<path d="M11.214 0.006125C11.162 0.011125 10.998 0.028125 10.85 0.039125C7.442 0.347125 4.25 2.18613 2.226 5.01312C1.1083 6.56485 0.38172 8.36346 0.108 10.2561C0.012 10.9161 0 11.1101 0 12.0041C0 12.8981 0.012 13.0931 0.108 13.7521C0.76 18.2591 3.968 22.0451 8.317 23.4481C9.096 23.6991 9.917 23.8701 10.85 23.9741C11.214 24.0141 12.786 24.0141 13.15 23.9741C14.761 23.7951 16.127 23.3961 17.473 22.7091C17.68 22.6041 17.72 22.5751 17.692 22.5521C17.0336 21.6838 16.3819 20.8105 15.737 19.9321L13.818 17.3391L11.414 13.7801C10.6141 12.5897 9.80677 11.4044 8.992 10.2241C8.983 10.2211 8.974 11.8021 8.969 13.7341C8.962 17.1141 8.959 17.2501 8.917 17.3301C8.87603 17.4235 8.80294 17.4991 8.711 17.5431C8.636 17.5811 8.571 17.5881 8.216 17.5881H7.81L7.702 17.5201C7.63517 17.4779 7.58094 17.4185 7.545 17.3481L7.495 17.2431L7.5 12.5391L7.507 7.83313L7.58 7.74113C7.62915 7.68361 7.68805 7.6352 7.754 7.59812C7.85 7.55113 7.887 7.54712 8.294 7.54712C8.772 7.54712 8.852 7.56512 8.976 7.70113C9.011 7.73913 10.313 9.70112 11.871 12.0631L16.605 19.2351L18.505 22.1131L18.602 22.0501C19.5164 21.4422 20.3454 20.7148 21.067 19.8871C22.5792 18.1564 23.56 16.0263 23.892 13.7521C23.988 13.0921 24 12.8981 24 12.0041C24 11.1101 23.988 10.9161 23.892 10.2561C23.24 5.75012 20.032 1.96312 15.683 0.560125C14.8702 0.301694 14.0332 0.126462 13.185 0.037125C12.959 0.013125 11.409 -0.012875 11.215 0.007125L11.214 0.006125ZM16.127 7.26612C16.1828 7.29421 16.2324 7.33306 16.2731 7.38043C16.3138 7.4278 16.3447 7.48275 16.364 7.54212C16.382 7.60212 16.387 8.90713 16.382 11.8471L16.375 16.0651L15.632 14.9251L14.886 13.7851V10.7191C14.886 8.73612 14.895 7.62212 14.909 7.56812C14.9256 7.50566 14.9548 7.44723 14.9947 7.39635C15.0345 7.34547 15.0843 7.30321 15.141 7.27212C15.238 7.22212 15.273 7.21812 15.641 7.21812C15.988 7.21812 16.049 7.22412 16.127 7.26612Z" fill="#626262"/>
</g>
<defs>
<clipPath id="clip0_3300_11995">
<rect width="24" height="24" fill="white"/>
</clipPath>
</defs>
</svg>

<svg width="24" height="24" viewBox="0 0 24 24" fill="none" xmlns="http://www.w3.org/2000/svg"><g clip-path="url(#a)"><path d="M11.214.006c-.052.005-.216.022-.364.033-3.408.308-6.6 2.147-8.624 4.974a11.88 11.88 0 0 0-2.118 5.243c-.096.66-.108.854-.108 1.748s.012 1.09.108 1.748c.652 4.507 3.86 8.293 8.209 9.696.779.251 1.6.422 2.533.526.364.04 1.936.04 2.3 0 1.611-.179 2.977-.578 4.323-1.265.207-.105.247-.134.219-.157a211.28 211.28 0 0 1-1.955-2.62l-1.919-2.593-2.404-3.559c-.8-1.19-1.607-2.376-2.422-3.556-.009-.003-.018 1.578-.023 3.51-.007 3.38-.01 3.516-.052 3.596a.426.426 0 0 1-.206.213c-.075.038-.14.045-.495.045H7.81l-.108-.068a.44.44 0 0 1-.157-.172l-.05-.105.005-4.704.007-4.706.073-.092a.644.644 0 0 1 .174-.143c.096-.047.133-.05.54-.05.478 0 .558.017.682.153.035.038 1.337 2 2.895 4.362l4.734 7.172 1.9 2.878.097-.063a12.316 12.316 0 0 0 2.465-2.163 11.947 11.947 0 0 0 2.825-6.135c.096-.66.108-.854.108-1.748s-.012-1.088-.108-1.748C23.24 5.75 20.032 1.963 15.683.56a12.6 12.6 0 0 0-2.498-.523c-.226-.024-1.776-.05-1.97-.03h-.001Zm4.913 7.26a.473.473 0 0 1 .237.276c.018.06.023 1.365.018 4.305l-.007 4.218-.743-1.14-.746-1.14V10.72c0-1.983.009-3.097.023-3.15a.477.477 0 0 1 .232-.297c.097-.05.132-.054.5-.054.347 0 .408.006.486.048Z" fill="#626262"/></g><defs><clipPath id="a"><path fill="#fff" d="M0 0h24v24H0z"/></clipPath></defs></svg>
